X: 1
T:Theme from the Peasant Cantata
C:Johann Sebastian Bach
Z:Transcribed by Frank Nordberg - http://www.musicaviva.com

M:C|
L:1/8
Q:304
K:A
AB|c2BAe2fg|a2gfe2 a2|fg ef de cd|BAGFE2B2|
cdefB3A|A4 z2 :: e2|a2a2a2bc'|f2f2f2 f2|b2b2b2c'd'|
g2fge2 a2|f2e2e2a2|f2e2e2 dc|f2e2dcBA|G2FGE2 AB|c2BAe2fg|
a2gfe2 a2|fg ef de cd|BAGFE2 B2|cdefB3A|A4 z2 :|

